X:1
T:Benbow
M:4/4
L:1/4
K:C
 A/2| d d^c/2-d/2 e/2d/2| A2 F A| c2 A e| g2 f- e| fe/2-d/2 ^c/2d/2 e/2c/2|\
 A2 F A| d3d/2-e/2| f f a a| g2 f- e| fe/2-d/2 g/2f/2e/2-d/2| ^c2 z G|\
 A d e g| f2f/2-e/2 d/2^c/2| d2 A ^c| d3 G| A d f g| f2f/2-e/2 d/2^c/2|\
 d2 A ^c| d3 z/2||
